images/icons/about-24.svg

<svg width="24" height="24" viewBox="0 0 24 24" fill="none" xmlns="http://www.w3.org/2000/svg">
<path d="M11.7246 6.26151V5.44611C11.7246 5.01359 11.547 4.59879 11.2307 4.29296C10.9144 3.98712 10.4855 3.81531 10.0382 3.81531C9.59093 3.81531 9.16198 3.98712 8.84572 4.29296C8.52945 4.59879 8.35177 5.01359 8.35177 5.44611V13.2112C8.35169 13.3443 8.31787 13.4755 8.25327 13.5931C8.18867 13.7107 8.09527 13.8112 7.98121 13.8859C7.86716 13.9605 7.73594 14.0071 7.59901 14.0213C7.46208 14.0356 7.32362 14.0173 7.19572 13.9678L5.05143 13.1386C4.77964 13.0334 4.4819 13.0077 4.19515 13.0647C3.9084 13.1217 3.64526 13.2588 3.43836 13.459C3.16993 13.7184 3.01352 14.0667 3.00084 14.4334C2.98815 14.8002 3.12015 15.1578 3.37006 15.4339L6.08352 18.433C6.79593 19.2202 7.67413 19.851 8.65927 20.2832C9.6444 20.7153 10.7137 20.9388 11.7955 20.9387H15.0975V20.9387C18.3574 20.9387 21 18.2961 21 15.0362V6.66921C21 6.34482 20.8667 6.03372 20.6295 5.80434C20.3923 5.57497 20.0706 5.44611 19.7352 5.44611C19.3997 5.44611 19.078 5.57497 18.8408 5.80434C18.6036 6.03372 18.4704 6.34482 18.4704 6.66921V7.07691" stroke="#262B62" stroke-width="2" stroke-miterlimit="10" stroke-linecap="round" stroke-linejoin="round"/>
<path d="M11.7246 11.154V4.6308C11.7246 4.19828 11.9023 3.78348 12.2186 3.47765C12.5348 3.17182 12.9638 3 13.411 3C13.8583 3 14.2873 3.17182 14.6035 3.47765C14.9198 3.78348 15.0975 4.19828 15.0975 4.6308V11.154" stroke="#262B62" stroke-width="2" stroke-miterlimit="10" stroke-linecap="round" stroke-linejoin="round"/>
<path d="M15.0974 6.26151V5.44611C15.0974 5.01359 15.2751 4.59879 15.5914 4.29296C15.9076 3.98712 16.3366 3.81531 16.7838 3.81531V3.81531C17.2311 3.81531 17.6601 3.98712 17.9763 4.29296C18.2926 4.59879 18.4703 5.01359 18.4703 5.44611V11.1539" stroke="#262B62" stroke-width="2" stroke-miterlimit="10" stroke-linecap="round" stroke-linejoin="round"/>
</svg>

<svg width="24" height="24" fill="none" xmlns="http://www.w3.org/2000/svg"><path d="M11.7246 6.2615v-.8154c0-.4325-.1776-.8473-.4939-1.1531-.3163-.3059-.7452-.4777-1.1925-.4777-.4473 0-.8762.1718-1.1925.4777-.3163.3058-.494.7206-.494 1.1531v7.7651a.794.794 0 01-.0984.3819.826.826 0 01-.272.2928.8683.8683 0 01-.7855.0819l-2.1444-.8292a1.5422 1.5422 0 00-.8563-.0739 1.5118 1.5118 0 00-.7567.3943c-.2685.2594-.4249.6077-.4376.9744-.0126.3668.1194.7244.3693 1.0005l2.7134 2.9991c.7124.7872 1.5906 1.418 2.5758 1.8502a7.8102 7.8102 0 003.1362.6555h3.302v0c3.2599 0 5.9025-2.6426 5.9025-5.9025v-8.367c0-.3244-.1333-.6355-.3705-.8649-.2372-.2293-.5589-.3582-.8943-.3582-.3355 0-.6572.1289-.8944.3582-.2372.2294-.3704.5405-.3704.865v.4076" stroke="#262B62" stroke-width="2" stroke-miterlimit="10" stroke-linecap="round" stroke-linejoin="round"/><path d="M11.7246 11.154V4.6308c0-.4325.1777-.8473.494-1.1531C12.5348 3.1718 12.9638 3 13.411 3c.4473 0 .8763.1718 1.1925.4777.3163.3058.494.7206.494 1.1531v6.5232" stroke="#262B62" stroke-width="2" stroke-miterlimit="10" stroke-linecap="round" stroke-linejoin="round"/><path d="M15.0974 6.2615v-.8154c0-.4325.1777-.8473.494-1.1531.3162-.3059.7452-.4777 1.1924-.4777v0c.4473 0 .8763.1718 1.1925.4777.3163.3058.494.7206.494 1.1531v5.7078" stroke="#262B62" stroke-width="2" stroke-miterlimit="10" stroke-linecap="round" stroke-linejoin="round"/></svg>
